X:104
T:T064- Steg Knetter'd at the Sneck Band'
N:from 'The Gentleman's Magazine', p. 288, 1753
Q:1/4=120
M:6/8
K:G
d3BGB|c3A3|BGB dBd|gdc BAG|cec B3|AFA c3|BdB AFD|G3G,3::\
b3dfb|a2Adfa|gfg eag|fed D2^f|ece a3|dBd gdc|BGB AFD|G3G,3:|]

